Numix/64/mimetypes/application-image-png.svg

<?xml version="1.0" encoding="UTF-8" standalone="no"?>
<svg
   xmlns:dc="http://purl.org/dc/elements/1.1/"
   xmlns:cc="http://creativecommons.org/ns#"
   xmlns:rdf="http://www.w3.org/1999/02/22-rdf-syntax-ns#"
   xmlns:svg="http://www.w3.org/2000/svg"
   xmlns="http://www.w3.org/2000/svg"
   xmlns:sodipodi="http://sodipodi.sourceforge.net/DTD/sodipodi-0.dtd"
   xmlns:inkscape="http://www.inkscape.org/namespaces/inkscape"
   width="64px"
   height="64px"
   viewBox="0 0 64 64"
   version="1.1"
   id="svg2"
   inkscape:version="0.91 r13725"
   sodipodi:docname="application-image-png.svg">
  <metadata
     id="metadata25">
    <rdf:RDF>
      <cc:Work
         rdf:about="">
        <dc:format>image/svg+xml</dc:format>
        <dc:type
           rdf:resource="http://purl.org/dc/dcmitype/StillImage" />
      </cc:Work>
    </rdf:RDF>
  </metadata>
  <defs
     id="defs23" />
  <sodipodi:namedview
     pagecolor="#ffffff"
     bordercolor="#666666"
     borderopacity="1"
     objecttolerance="10"
     gridtolerance="10"
     guidetolerance="10"
     inkscape:pageopacity="0"
     inkscape:pageshadow="2"
     inkscape:window-width="1366"
     inkscape:window-height="704"
     id="namedview21"
     showgrid="false"
     inkscape:zoom="31.055664"
     inkscape:cx="36.85757"
     inkscape:cy="32"
     inkscape:window-x="0"
     inkscape:window-y="27"
     inkscape:window-maximized="1"
     inkscape:current-layer="svg2" />
  <g
     id="surface1">
    <path
       style=" stroke:none;fill-rule:nonzero;fill:rgb(21.960784%,63.921569%,30.588235%);fill-opacity:1;"
       d="M 10.671875 0 C 9.296875 0 8 1.355469 8 2.789062 L 8 61.210938 C 8 62.566406 9.375 64 10.671875 64 L 53.328125 64 C 54.625 64 56 62.566406 56 61.210938 L 56 18 L 38 0 Z M 10.671875 0 "
       id="path5" />
    <path
       style=" stroke:none;fill-rule:nonzero;fill:rgb(0%,0%,0%);fill-opacity:0.196078;"
       d="M 42 18 L 56 32 L 56 18 Z M 42 18 "
       id="path7" />
    <path
       style=" stroke:none;fill-rule:nonzero;fill:rgb(100%,100%,100%);fill-opacity:0.392157;"
       d="M 38 0 L 55.984375 18 L 40.757812 18 C 39.410156 18 38 16.574219 38 15.226562 Z M 38 0 "
       id="path9" />
    <path
       style="fill:#ffffff;fill-opacity:1;fill-rule:nonzero;stroke:none"
       d="M 23.289062,22 C 22.585938,22.066406 21.984375,22.8125 22,23.605469 l 0,16.828125 c 0.0078,0.828125 0.667969,1.574218 1.40625,1.566406 l 17.222656,0 C 41.355469,41.984375 41.992188,41.253906 42,40.433594 L 42,23.605469 C 42.015625,22.769531 41.371094,22.007812 40.628906,22 Z M 24,24 40,24 40,35.402344 35.296875,30.085938 32.316406,32.859375 28.386719,27.9375 24,33.597656 Z"
       id="path11"
       inkscape:connector-curvature="0"
       sodipodi:nodetypes="ccccccccccccccccc" />
    <path
       style=" stroke:none;fill-rule:nonzero;fill:rgb(0%,0%,0%);fill-opacity:0.196078;"
       d="M 8 48 L 8 61.335938 C 8 62.632812 9.375 64 10.664062 64 L 53.335938 64 C 54.625 64 56 62.632812 56 61.335938 L 56 48 Z M 8 48 "
       id="path13" />
    <path
       style=" stroke:none;fill-rule:nonzero;fill:rgb(100%,100%,100%);fill-opacity:1;"
       d="M 21.378906 51.128906 C 22.9375 51.128906 24.152344 51.417969 25.011719 51.984375 C 25.875 52.542969 26.300781 53.453125 26.300781 54.722656 C 26.300781 56.003906 25.867188 56.9375 24.988281 57.511719 C 24.132812 58.078125 22.90625 58.363281 21.320312 58.363281 L 20.445312 58.363281 L 20.445312 61.988281 L 18 61.988281 L 18 51.394531 C 18.238281 51.351562 18.507812 51.3125 18.796875 51.269531 C 19.097656 51.238281 19.402344 51.210938 19.714844 51.203125 C 20.015625 51.179688 20.3125 51.164062 20.601562 51.15625 C 20.894531 51.140625 21.148438 51.128906 21.378906 51.128906 M 21.65625 52.992188 C 21.511719 52.992188 21.304688 52.992188 21.042969 53.007812 C 20.789062 53.007812 20.589844 53.015625 20.445312 53.042969 L 20.445312 56.511719 L 21.4375 56.511719 C 22.214844 56.511719 22.804688 56.371094 23.207031 56.109375 C 23.601562 55.832031 23.796875 55.363281 23.796875 54.707031 C 23.796875 54.082031 23.601562 53.640625 23.207031 53.386719 C 22.824219 53.125 22.304688 52.992188 21.65625 52.992188 "
       id="path15" />
    <path
       style=" stroke:none;fill-rule:nonzero;fill:rgb(100%,100%,100%);fill-opacity:1;"
       d="M 33.902344 61.988281 C 33.351562 60.792969 32.738281 59.609375 32.082031 58.429688 C 31.433594 57.242188 30.730469 56.050781 29.972656 54.863281 L 29.972656 61.988281 L 27.769531 61.988281 L 27.769531 51.253906 L 29.738281 51.253906 C 30.105469 51.761719 30.472656 52.320312 30.851562 52.917969 C 31.222656 53.507812 31.574219 54.101562 31.917969 54.691406 C 32.277344 55.28125 32.597656 55.847656 32.894531 56.402344 C 33.199219 56.960938 33.460938 57.445312 33.664062 57.863281 L 33.664062 51.253906 L 35.871094 51.253906 L 35.871094 61.988281 L 33.902344 61.988281 "
       id="path17" />
    <path
       style=" stroke:none;fill-rule:nonzero;fill:rgb(100%,100%,100%);fill-opacity:1;"
       d="M 42.980469 52.871094 C 42.398438 52.871094 41.90625 52.960938 41.515625 53.148438 C 41.113281 53.328125 40.785156 53.589844 40.519531 53.925781 C 40.265625 54.246094 40.078125 54.640625 39.964844 55.101562 C 39.855469 55.550781 39.800781 56.058594 39.800781 56.609375 C 39.800781 57.898438 40.039062 58.839844 40.496094 59.457031 C 40.964844 60.054688 41.644531 60.355469 42.539062 60.355469 C 42.6875 60.355469 42.851562 60.347656 43.023438 60.339844 C 43.195312 60.324219 43.351562 60.308594 43.5 60.285156 L 43.5 56.371094 L 45.933594 56.371094 L 45.933594 61.726562 C 45.648438 61.816406 45.1875 61.925781 44.566406 62.039062 C 43.957031 62.152344 43.21875 62.210938 42.34375 62.210938 C 41.578125 62.210938 40.882812 62.097656 40.257812 61.867188 C 39.652344 61.621094 39.128906 61.269531 38.691406 60.808594 C 38.257812 60.332031 37.914062 59.75 37.675781 59.054688 C 37.4375 58.347656 37.324219 57.535156 37.324219 56.609375 C 37.324219 55.699219 37.460938 54.894531 37.742188 54.207031 C 38.019531 53.5 38.398438 52.910156 38.871094 52.433594 C 39.347656 51.960938 39.90625 51.605469 40.554688 51.375 C 41.203125 51.128906 41.898438 51.015625 42.644531 51.015625 C 43.121094 51.015625 43.539062 51.046875 43.910156 51.113281 C 44.292969 51.171875 44.628906 51.246094 44.910156 51.328125 C 45.179688 51.410156 45.410156 51.492188 45.582031 51.582031 C 45.761719 51.679688 45.902344 51.746094 46 51.796875 L 45.359375 53.492188 C 45.074219 53.328125 44.710938 53.1875 44.285156 53.058594 C 43.867188 52.933594 43.433594 52.871094 42.980469 52.871094 "
       id="path19" />
  </g>
</svg>

<svg xmlns="http://www.w3.org/2000/svg" viewBox="0 0 64 64">
 <g>
  <path d="m 10.672 0 c -1.375 0 -2.672 1.355 -2.672 2.789 l 0 58.42 c 0 1.355 1.375 2.789 2.672 2.789 l 42.656 0 c 1.297 0 2.672 -1.434 2.672 -2.789 l 0 -43.21 l -18 -18 m -27.328 0" style="fill:#37a34d;fill-opacity:1;stroke:none;fill-rule:nonzero"/>
  <path d="m 42 18 l 14 14 l 0 -14 m -14 0" style="fill:#000;fill-opacity:0.196;stroke:none;fill-rule:nonzero"/>
  <path d="m 38 0 l 17.984 18 l -15.227 0 c -1.348 0 -2.758 -1.426 -2.758 -2.773 m 0 -15.227" style="fill:#fff;fill-opacity:0.392;stroke:none;fill-rule:nonzero"/>
  <path d="m 23.289 22 c -0.703 0.066 -1.305 0.813 -1.289 1.605 l 0 16.828 c 0.008 0.828 0.668 1.574 1.406 1.566 l 17.223 0 c 0.727 -0.016 1.363 -0.746 1.371 -1.566 l 0 -16.828 c 0.016 -0.836 -0.629 -1.598 -1.371 -1.605 m -16.629 2 16 0 0 11.402 -4.703 -5.316 -2.98 2.773 -3.93 -4.922 -4.387 5.66" style="fill:#fff;fill-opacity:1;stroke:none;fill-rule:nonzero"/>
  <path d="m 8 48 l 0 13.336 c 0 1.297 1.375 2.664 2.664 2.664 l 42.672 0 c 1.289 0 2.664 -1.367 2.664 -2.664 l 0 -13.336 m -48 0" style="fill:#000;fill-opacity:0.196;stroke:none;fill-rule:nonzero"/>
  <path d="m 21.379 51.13 c 1.559 0 2.773 0.289 3.633 0.855 c 0.863 0.559 1.289 1.469 1.289 2.738 c 0 1.281 -0.434 2.215 -1.313 2.789 c -0.855 0.566 -2.082 0.852 -3.668 0.852 l -0.875 0 l 0 3.625 l -2.445 0 l 0 -10.594 c 0.238 -0.043 0.508 -0.082 0.797 -0.125 c 0.301 -0.031 0.605 -0.059 0.918 -0.066 c 0.301 -0.023 0.598 -0.039 0.887 -0.047 c 0.293 -0.016 0.547 -0.027 0.777 -0.027 m 0.277 1.863 c -0.145 0 -0.352 0 -0.613 0.016 c -0.254 0 -0.453 0.008 -0.598 0.035 l 0 3.469 l 0.992 0 c 0.777 0 1.367 -0.141 1.77 -0.402 c 0.395 -0.277 0.59 -0.746 0.59 -1.402 c 0 -0.625 -0.195 -1.066 -0.59 -1.32 c -0.383 -0.262 -0.902 -0.395 -1.551 -0.395" style="fill:#fff;fill-opacity:1;stroke:none;fill-rule:nonzero"/>
  <path d="m 33.902 61.988 c -0.551 -1.195 -1.164 -2.379 -1.82 -3.559 c -0.648 -1.188 -1.352 -2.379 -2.109 -3.566 l 0 7.125 l -2.203 0 l 0 -10.734 l 1.969 0 c 0.367 0.508 0.734 1.066 1.113 1.664 c 0.371 0.59 0.723 1.184 1.066 1.773 c 0.359 0.59 0.68 1.156 0.977 1.711 c 0.305 0.559 0.566 1.043 0.77 1.461 l 0 -6.609 l 2.207 0 l 0 10.734 l -1.969 0" style="fill:#fff;fill-opacity:1;stroke:none;fill-rule:nonzero"/>
  <path d="m 42.98 52.871 c -0.582 0 -1.074 0.09 -1.465 0.277 c -0.402 0.18 -0.73 0.441 -0.996 0.777 c -0.254 0.32 -0.441 0.715 -0.555 1.176 c -0.109 0.449 -0.164 0.957 -0.164 1.508 c 0 1.289 0.238 2.23 0.695 2.848 c 0.469 0.598 1.148 0.898 2.043 0.898 c 0.148 0 0.313 -0.008 0.484 -0.016 c 0.172 -0.016 0.328 -0.031 0.477 -0.055 l 0 -3.914 l 2.434 0 l 0 5.355 c -0.285 0.09 -0.746 0.199 -1.367 0.313 c -0.609 0.113 -1.348 0.172 -2.223 0.172 c -0.766 0 -1.461 -0.113 -2.086 -0.344 c -0.605 -0.246 -1.129 -0.598 -1.566 -1.059 c -0.434 -0.477 -0.777 -1.059 -1.016 -1.754 c -0.238 -0.707 -0.352 -1.52 -0.352 -2.445 c 0 -0.91 0.137 -1.715 0.418 -2.402 c 0.277 -0.707 0.656 -1.297 1.129 -1.773 c 0.477 -0.473 1.035 -0.828 1.684 -1.059 c 0.648 -0.246 1.344 -0.359 2.09 -0.359 c 0.477 0 0.895 0.031 1.266 0.098 c 0.383 0.059 0.719 0.133 1 0.215 c 0.27 0.082 0.5 0.164 0.672 0.254 c 0.18 0.098 0.32 0.164 0.418 0.215 l -0.641 1.695 c -0.285 -0.164 -0.648 -0.305 -1.074 -0.434 c -0.418 -0.125 -0.852 -0.188 -1.305 -0.188" style="fill:#fff;fill-opacity:1;stroke:none;fill-rule:nonzero"/>
 </g>
</svg>
